svgs/anywhere_.svg

<svg width="192" height="192" viewBox="0 0 192 192" xmlns="http://www.w3.org/2000/svg"><path d="M32.9 150.2 22.4 146c-4-1.6-5.9-6.2-4.3-10.2L32.9 99v51.2zm37.9 16.2H56.3c-4.3 0-7.8-3.5-7.8-7.8v-47.4l22.3 55.2zM48.7 49.2 121 19.9c4-1.6 8.5.3 10.1 4.3l43.8 108.4c1.6 4-.3 8.5-4.3 10.2L98.3 172c-4 1.6-8.5-.3-10.2-4.3L44.4 59.3c-1.6-4 .3-8.5 4.3-10.1zm23.2 23.6c4.3.1 7.9-3.4 7.9-7.7.1-4.3-3.4-7.9-7.7-7.9h-.2c-4.3.1-7.7 3.6-7.7 7.9.1 4.2 3.5 7.6 7.7 7.7z"/></svg>

<svg width="192" height="192" viewBox="0 0 192 192" xmlns="http://www.w3.org/2000/svg">
    <path d="M32.9,150.2l-10.5-4.2c-4-1.6-5.9-6.2-4.3-10.2L32.9,99V150.2L32.9,150.2z M70.8,166.4H56.3c-4.3,0-7.8-3.5-7.8-7.8v-47.4
	L70.8,166.4z M48.7,49.2L121,19.9c4-1.6,8.5,0.3,10.1,4.3l43.8,108.4c1.6,4-0.3,8.5-4.3,10.2c0,0,0,0,0,0l-72.3,29.2
	c-4,1.6-8.5-0.3-10.2-4.3c0,0,0,0,0,0L44.4,59.3C42.8,55.3,44.7,50.8,48.7,49.2L48.7,49.2z M71.9,72.8c4.3,0.1,7.9-3.4,7.9-7.7
	c0.1-4.3-3.4-7.9-7.7-7.9c-0.1,0-0.2,0-0.2,0c-4.3,0.1-7.7,3.6-7.7,7.9C64.3,69.3,67.7,72.7,71.9,72.8z"
        fill="#000000"/>
</svg>
